icons/1_Primary/Neos.svg

<svg width="1024" height="1024" fill="none" xmlns="http://www.w3.org/2000/svg"><g clip-path="url(#a)"><path d="M512 1024c282.77 0 512-229.23 512-512S794.77 0 512 0 0 229.23 0 512s229.23 512 512 512Z" fill="#F8C18C"/><path d="M667.69 716.49a257.004 257.004 0 0 1-311.37 0 5.714 5.714 0 0 1-2.235-3.878 5.725 5.725 0 0 1 1.235-4.302l58-70.74a5.72 5.72 0 0 1 7.81-1 154.19 154.19 0 0 0 181.69 0 5.747 5.747 0 0 1 3.4-1.11 5.68 5.68 0 0 1 4.41 2.08l58 70.74a5.738 5.738 0 0 1 1.279 4.305 5.737 5.737 0 0 1-2.219 3.905Zm48.81-360.17a5.726 5.726 0 0 0-6.155-2.055 5.721 5.721 0 0 0-2.025 1.055l-70.75 58a5.711 5.711 0 0 0-1 7.8 153.27 153.27 0 0 1 27.78 67 5.715 5.715 0 0 0 2.14 3.658 5.716 5.716 0 0 0 4.07 1.182l91-9a5.716 5.716 0 0 0 2.18-.675 5.716 5.716 0 0 0 2.775-3.508 5.718 5.718 0 0 0 .155-2.277 255.511 255.511 0 0 0-50.18-121.18h.01ZM359.64 535.87A5.73 5.73 0 0 0 354 531h-.57l-91 9a5.716 5.716 0 0 0-2.18.675 5.727 5.727 0 0 0-2.93 5.785 255.509 255.509 0 0 0 50.2 121.17 5.714 5.714 0 0 0 3.878 2.235 5.718 5.718 0 0 0 4.302-1.235l70.75-58a5.709 5.709 0 0 0 1-7.79 153.282 153.282 0 0 1-27.81-66.97Zm-4.28-220.18 58 70.74a5.72 5.72 0 0 0 7.81 1 154.19 154.19 0 0 1 181.69 0 5.72 5.72 0 0 0 7.81-1l58-70.74a5.73 5.73 0 0 0-1-8.18 257.004 257.004 0 0 0-311.37 0 5.739 5.739 0 0 0-2.203 3.891 5.725 5.725 0 0 0 1.263 4.289Zm406.23 224.36-91-9h-.57a5.731 5.731 0 0 0-5.64 4.87 153.27 153.27 0 0 1-27.78 67 5.707 5.707 0 0 0 1 7.79l70.75 58a5.721 5.721 0 0 0 4.302 1.235 5.724 5.724 0 0 0 3.878-2.235 255.509 255.509 0 0 0 50.2-121.17 5.729 5.729 0 0 0-5.14-6.49Zm-375.15-126.7-70.75-58a5.726 5.726 0 0 0-6.468-.512 5.714 5.714 0 0 0-1.712 1.512 255.509 255.509 0 0 0-50.2 121.17 5.736 5.736 0 0 0 1.186 4.313 5.696 5.696 0 0 0 1.744 1.472 5.716 5.716 0 0 0 2.18.675l91 9a5.719 5.719 0 0 0 6.21-4.84 153.27 153.27 0 0 1 27.78-67 5.71 5.71 0 0 0-.97-7.79Z" fill="#fff"/></g><defs><clipPath id="a"><path fill="#fff" d="M0 0h1024v1024H0z"/></clipPath></defs></svg>

<svg width="1024" height="1024" viewBox="0 0 1024 1024" fill="none" xmlns="http://www.w3.org/2000/svg">
<g clip-path="url(#clip0_2_2892)">
<path d="M512 1024C794.77 1024 1024 794.77 1024 512C1024 229.23 794.77 0 512 0C229.23 0 0 229.23 0 512C0 794.77 229.23 1024 512 1024Z" fill="#F8C18C"/>
<path d="M667.69 716.49C622.94 750.561 568.249 769.012 512.005 769.012C455.761 769.012 401.07 750.561 356.32 716.49C355.706 716.027 355.192 715.445 354.808 714.778C354.424 714.112 354.178 713.375 354.085 712.612C353.991 711.849 354.053 711.075 354.265 710.335C354.477 709.596 354.836 708.907 355.32 708.31L413.32 637.57C414.246 636.435 415.572 635.698 417.025 635.512C418.479 635.326 419.948 635.705 421.13 636.57C447.513 655.808 479.323 666.174 511.975 666.174C544.627 666.174 576.437 655.808 602.82 636.57C603.806 635.848 604.997 635.459 606.22 635.46C607.063 635.458 607.897 635.643 608.659 636.003C609.422 636.362 610.095 636.888 610.63 637.54L668.63 708.28C669.122 708.875 669.489 709.562 669.709 710.302C669.928 711.042 669.996 711.818 669.909 712.585C669.821 713.352 669.579 714.093 669.198 714.764C668.816 715.435 668.304 716.022 667.69 716.49ZM716.5 356.32C716.037 355.706 715.454 355.192 714.788 354.808C714.122 354.424 713.385 354.178 712.622 354.085C711.859 353.991 711.085 354.053 710.345 354.265C709.606 354.477 708.917 354.836 708.32 355.32L637.57 413.32C636.436 414.244 635.699 415.569 635.513 417.02C635.327 418.472 635.705 419.939 636.57 421.12C651.057 440.909 660.584 463.886 664.35 488.12C664.568 489.568 665.334 490.878 666.49 491.778C667.645 492.679 669.102 493.102 670.56 492.96L761.56 483.96C762.325 483.884 763.066 483.654 763.74 483.285C764.414 482.917 765.008 482.416 765.484 481.813C765.961 481.21 766.312 480.518 766.515 479.777C766.719 479.036 766.772 478.262 766.67 477.5C760.772 433.429 743.476 391.659 716.49 356.32H716.5ZM359.64 535.87C359.435 534.519 358.754 533.286 357.72 532.393C356.685 531.5 355.366 531.006 354 531H353.43L262.43 540C261.665 540.076 260.924 540.306 260.25 540.675C259.575 541.043 258.982 541.544 258.506 542.147C258.029 542.749 257.678 543.442 257.474 544.183C257.271 544.924 257.218 545.698 257.32 546.46C263.225 590.53 280.529 632.296 307.52 667.63C307.983 668.244 308.565 668.758 309.232 669.142C309.898 669.526 310.634 669.772 311.398 669.865C312.161 669.959 312.935 669.897 313.674 669.685C314.414 669.473 315.102 669.114 315.7 668.63L386.45 610.63C387.582 609.706 388.316 608.383 388.502 606.934C388.688 605.485 388.311 604.02 387.45 602.84C372.957 583.062 363.42 560.096 359.64 535.87ZM355.36 315.69L413.36 386.43C414.286 387.565 415.612 388.302 417.065 388.488C418.519 388.674 419.988 388.295 421.17 387.43C447.553 368.192 479.363 357.826 512.015 357.826C544.667 357.826 576.477 368.192 602.86 387.43C604.042 388.295 605.511 388.674 606.964 388.488C608.417 388.302 609.744 387.565 610.67 386.43L668.67 315.69C669.154 315.092 669.513 314.404 669.725 313.665C669.937 312.925 669.999 312.151 669.905 311.388C669.812 310.625 669.566 309.888 669.182 309.222C668.798 308.555 668.284 307.973 667.67 307.51C622.92 273.439 568.229 254.988 511.985 254.988C455.741 254.988 401.05 273.439 356.3 307.51C355.691 307.978 355.182 308.563 354.803 309.232C354.425 309.9 354.184 310.638 354.097 311.401C354.009 312.164 354.076 312.937 354.293 313.674C354.51 314.411 354.873 315.096 355.36 315.69ZM761.59 540.05L670.59 531.05H670.02C668.654 531.056 667.334 531.55 666.3 532.443C665.266 533.336 664.585 534.569 664.38 535.92C660.614 560.154 651.087 583.131 636.6 602.92C635.738 604.1 635.362 605.565 635.548 607.014C635.734 608.463 636.468 609.786 637.6 610.71L708.35 668.71C708.947 669.194 709.636 669.553 710.375 669.765C711.115 669.977 711.889 670.039 712.652 669.945C713.415 669.852 714.152 669.606 714.818 669.222C715.485 668.838 716.067 668.324 716.53 667.71C743.521 632.376 760.825 590.61 766.73 546.54C766.836 545.774 766.786 544.994 766.582 544.248C766.379 543.501 766.026 542.804 765.546 542.197C765.066 541.591 764.467 541.088 763.788 540.719C763.108 540.35 762.36 540.122 761.59 540.05ZM386.44 413.35L315.69 355.35C315.092 354.866 314.404 354.507 313.664 354.295C312.925 354.083 312.151 354.021 311.388 354.115C310.625 354.208 309.888 354.454 309.222 354.838C308.555 355.222 307.973 355.736 307.51 356.35C280.519 391.684 263.215 433.45 257.31 477.52C257.208 478.282 257.261 479.056 257.464 479.797C257.668 480.538 258.019 481.23 258.496 481.833C258.972 482.436 259.565 482.937 260.24 483.305C260.914 483.674 261.655 483.904 262.42 483.98L353.42 492.98C354.878 493.122 356.335 492.699 357.49 491.798C358.646 490.898 359.411 489.588 359.63 488.14C363.396 463.906 372.923 440.929 387.41 421.14C388.275 419.964 388.656 418.501 388.476 417.052C388.296 415.603 387.567 414.278 386.44 413.35Z" fill="white"/>
</g>
<defs>
<clipPath id="clip0_2_2892">
<rect width="1024" height="1024" fill="white"/>
</clipPath>
</defs>
</svg>
